img/logo.svg

<svg viewBox="0 0 240 240" xmlns="http://www.w3.org/2000/svg"><path d="M142.3 72.31c14.22-5.06 30.67-3.06 43.39 5.02-4.27 7.41-8.38 14.92-12.57 22.38-4.38-2.34-9.09-4.62-14.18-4.39-8.59-.14-17.26 4.56-21.49 12.11-4.29 7.02-4.21 16.27-.39 23.48 3.91 7.69 12.22 12.8 20.82 13.01 8.33.53 16.47-3.81 21.19-10.6-6.86-.06-13.72-.04-20.57.01-.01-8.61-.01-17.22.01-25.83 16.32-.01 32.64-.02 48.95-.01-.06 10.86.82 22.14-3.3 32.45-4.72 13.3-16.33 23.63-29.85 27.4-10.44 2.75-21.78 3.11-32.03-.59-13.37-4.48-24.49-15.09-29.87-28.08-4.22-10.47-5.1-22.41-1.83-33.26 4.38-15.28 16.66-28.04 31.72-33.1zm-89.63 1.34c5.34-2.69 11.44-3.19 17.34-3.16 10.48.05 20.97 0 31.45.02 0 8.16.01 16.32.01 24.48-11.15.02-22.3-.03-33.45-.01-3.14-.08-6.54.89-8.42 3.58-2.24 2.71-1.89 6.42-1.98 9.7 14.62 0 29.24-.02 43.85 0 .01 7.75.03 15.49 0 23.23-14.63.01-29.26-.01-43.88.01.01 3.51.18 7.44 2.93 10.01 2.04 2.52 5.47 2.74 8.46 2.75 10.83-.01 21.66-.01 32.48-.02-.02 8.2.11 16.4-.08 24.6-10.81-.2-21.62-.02-32.43-.08-7.3-.17-14.76-1.73-20.94-5.76-9.21-6.17-15.33-16.88-15.43-28.03-.08-9.97.01-19.94-.04-29.9-.36-13.23 7.98-26.21 20.13-31.42z" fill="#1179bf"/><path d="M94.94 13.14c8.12-.74 16.01-3.02 24.08-4.11 6.05-.73 11.97 1.2 18 .97 5.7.03 11.61-.4 17.07 1.53 6.41 2.29 13.4 2.71 19.49 5.89 8.15 4.19 15.93 9.16 22.94 15.07 3.46 2.94 6.37 6.5 8.47 10.54 1.36 2.85 4.22 4.39 6.3 6.63 10.03 11.62 17.47 25.36 22.34 39.89 2.35 6.9 2.36 14.24 3.29 21.4.21 8.04.06 16.1-.28 24.13-2.2 8.79-4.75 17.56-9.03 25.6-3.19 7.95-7.13 15.64-12.44 22.4-3.44 4.22-7.42 7.97-10.69 12.34-3.97 5.01-8.86 9.19-13.95 13.02-7.95 5.95-16.13 11.82-25.34 15.64-8.45 3.01-17.42 4.11-26.24 5.5-10.02 1.51-19.97-1.59-30.01-1.12-6.41-.5-12.98-.03-19.15-2.18-4.8-1.57-9.81-2.29-14.74-3.3-6.74-1.65-12.75-5.23-18.97-8.16-5.56-2.6-8.8-8.26-11.53-13.48 1.7-.12 3.52-.82 5.16-.02 6.72 2.92 13.07 6.63 19.76 9.61-4.86-4.28-9.53-8.75-13.75-13.66-8.24-9.45-19.51-16.39-25.26-27.87-3.47-8.78-4-18.33-6.44-27.39-3.02-13.2-3.07-27-.65-40.3-.83-1.03-1.67-2.05-2.51-3.07 1.02-4.82 1.85-11.39 7.09-13.36-.14-.31-.4-.92-.54-1.23-1.46 1.29-3.01 2.5-4.55 3.7-2.69-2.17-1.78-5.83-1.46-8.8 2.32-11.15 8.77-20.87 15.85-29.57 7.74-10.11 18.77-16.81 28.7-24.45 3.81-1.84 7.83-3.24 11.49-5.4 5.38-3.19 11.47-4.89 17.5-6.39m47.36 59.17c-15.06 5.06-27.34 17.82-31.72 33.1-3.27 10.85-2.39 22.79 1.83 33.26 5.38 12.99 16.5 23.6 29.87 28.08 10.25 3.7 21.59 3.34 32.03.59 13.52-3.77 25.13-14.1 29.85-27.4 4.12-10.31 3.24-21.59 3.3-32.45-16.31-.01-32.63 0-48.95.01-.02 8.61-.02 17.22-.01 25.83 6.85-.05 13.71-.07 20.57-.01-4.72 6.79-12.86 11.13-21.19 10.6-8.6-.21-16.91-5.32-20.82-13.01-3.82-7.21-3.9-16.46.39-23.48 4.23-7.55 12.9-12.25 21.49-12.11 5.09-.23 9.8 2.05 14.18 4.39 4.19-7.46 8.3-14.97 12.57-22.38-12.72-8.08-29.17-10.08-43.39-5.02m-89.63 1.34c-12.15 5.21-20.49 18.19-20.13 31.42.05 9.96-.04 19.93.04 29.9.1 11.15 6.22 21.86 15.43 28.03 6.18 4.03 13.64 5.59 20.94 5.76 10.81.06 21.62-.12 32.43.08.19-8.2.06-16.4.08-24.6-10.82.01-21.65.01-32.48.02-2.99-.01-6.42-.23-8.46-2.75-2.75-2.57-2.92-6.5-2.93-10.01 14.62-.02 29.25 0 43.88-.01.03-7.74.01-15.48 0-23.23-14.61-.02-29.23 0-43.85 0 .09-3.28-.26-6.99 1.98-9.7 1.88-2.69 5.28-3.66 8.42-3.58 11.15-.02 22.3.03 33.45.01 0-8.16-.01-16.32-.01-24.48-10.48-.02-20.97.03-31.45-.02-5.9-.03-12 .47-17.34 3.16zM5.72 92.63c1.7-3.25 2.84-7.41 6.35-9.17 2.38.38 2.72 3.63 2.38 5.61-.91 3.24-2.1 6.43-2.18 9.84-2.36 8.48-1.48 17.38-1.39 26.07 1.77 7.64 2.73 15.5 5.39 22.92 2.8 8.3 5.08 16.88 9.23 24.64-.79.53-1.59 1.06-2.39 1.6-7.14-5.75-11.25-14.21-14.64-22.52-4.25-10.23-5.89-21.5-4.9-32.52.43-5.29-.29-10.63.76-15.86.66-3.53-.41-7.32 1.39-10.61z" fill="#fff"/></svg>

<?xml version="1.0" encoding="UTF-8" ?>
<!DOCTYPE svg PUBLIC "-//W3C//DTD SVG 1.1//EN" "http://www.w3.org/Graphics/SVG/1.1/DTD/svg11.dtd">
<svg width="100%" height="100%" viewBox="0 0 240 240" version="1.1" xmlns="http://www.w3.org/2000/svg">
<g id="#2986c5ff">
<!-- fill="#1179bf" opacity="1.00"-->
<path fill="#1179bf" opacity="1.00" d=" M 142.30 72.31 C 156.52 67.25 172.97 69.25 185.69 77.33 C 181.42 84.74 177.31 92.25 173.12 99.71 C 168.74 97.37 164.03 95.09 158.94 95.32 C 150.35 95.18 141.68 99.88 137.45 107.43 C 133.16 114.45 133.24 123.70 137.06 130.91 C 140.97 138.60 149.28 143.71 157.88 143.92 C 166.21 144.45 174.35 140.11 179.07 133.32 C 172.21 133.26 165.35 133.28 158.50 133.33 C 158.49 124.72 158.49 116.11 158.51 107.50 C 174.83 107.49 191.15 107.48 207.46 107.49 C 207.40 118.35 208.28 129.63 204.16 139.94 C 199.44 153.24 187.83 163.57 174.31 167.34 C 163.87 170.09 152.53 170.45 142.28 166.75 C 128.91 162.27 117.79 151.66 112.41 138.67 C 108.19 128.20 107.31 116.26 110.58 105.41 C 114.96 90.13 127.24 77.37 142.30 72.31 Z" />
<!-- fill="#1179bf" -->
<path fill="#1179bf" opacity="1.00" d=" M 52.67 73.65 C 58.01 70.96 64.11 70.46 70.01 70.49 C 80.49 70.54 90.98 70.49 101.46 70.51 C 101.46 78.67 101.47 86.83 101.47 94.99 C 90.32 95.01 79.17 94.96 68.02 94.98 C 64.88 94.90 61.48 95.87 59.60 98.56 C 57.36 101.27 57.71 104.98 57.62 108.26 C 72.24 108.26 86.86 108.24 101.47 108.26 C 101.48 116.01 101.50 123.75 101.47 131.49 C 86.84 131.50 72.21 131.48 57.59 131.50 C 57.60 135.01 57.77 138.94 60.52 141.51 C 62.56 144.03 65.99 144.25 68.98 144.26 C 79.81 144.25 90.64 144.25 101.46 144.24 C 101.44 152.44 101.57 160.64 101.38 168.84 C 90.57 168.64 79.76 168.82 68.95 168.76 C 61.65 168.59 54.19 167.03 48.01 163.00 C 38.80 156.83 32.68 146.12 32.58 134.97 C 32.50 125.00 32.59 115.03 32.54 105.07 C 32.18 91.84 40.52 78.86 52.67 73.65 Z" />
</g>
<g id="#ffffffff">
<path fill="#ffffff" opacity="1.00" d=" M 94.94 13.14 C 103.06 12.40 110.95 10.12 119.02 9.03 C 125.07 8.30 130.99 10.23 137.02 10.00 C 142.72 10.03 148.63 9.60 154.09 11.53 C 160.50 13.82 167.49 14.24 173.58 17.42 C 181.73 21.61 189.51 26.58 196.52 32.49 C 199.98 35.43 202.89 38.99 204.99 43.03 C 206.35 45.88 209.21 47.42 211.29 49.66 C 221.32 61.28 228.76 75.02 233.63 89.55 C 235.98 96.45 235.99 103.79 236.92 110.95 C 237.13 118.99 236.98 127.05 236.64 135.08 C 234.44 143.87 231.89 152.64 227.61 160.68 C 224.42 168.63 220.48 176.32 215.17 183.08 C 211.73 187.30 207.75 191.05 204.48 195.42 C 200.51 200.43 195.62 204.61 190.53 208.44 C 182.58 214.39 174.40 220.26 165.19 224.08 C 156.74 227.09 147.77 228.19 138.95 229.58 C 128.93 231.09 118.98 227.99 108.94 228.46 C 102.53 227.96 95.96 228.43 89.79 226.28 C 84.99 224.71 79.98 223.99 75.05 222.98 C 68.31 221.33 62.30 217.75 56.08 214.82 C 50.52 212.22 47.28 206.56 44.55 201.34 C 46.25 201.22 48.07 200.52 49.71 201.32 C 56.43 204.24 62.78 207.95 69.47 210.93 C 64.61 206.65 59.94 202.18 55.72 197.27 C 47.48 187.82 36.21 180.88 30.46 169.40 C 26.99 160.62 26.46 151.07 24.02 142.01 C 21.00 128.81 20.95 115.01 23.37 101.71 C 22.54 100.68 21.70 99.66 20.86 98.64 C 21.88 93.82 22.71 87.25 27.95 85.28 C 27.81 84.97 27.55 84.36 27.41 84.05 C 25.95 85.34 24.40 86.55 22.86 87.75 C 20.17 85.58 21.08 81.92 21.40 78.95 C 23.72 67.80 30.17 58.08 37.25 49.38 C 44.99 39.27 56.02 32.57 65.95 24.93 C 69.76 23.09 73.78 21.69 77.44 19.53 C 82.82 16.34 88.91 14.64 94.94 13.14 M 142.30 72.31 C 127.24 77.37 114.96 90.13 110.58 105.41 C 107.31 116.26 108.19 128.20 112.41 138.67 C 117.79 151.66 128.91 162.27 142.28 166.75 C 152.53 170.45 163.87 170.09 174.31 167.34 C 187.83 163.57 199.44 153.24 204.16 139.94 C 208.28 129.63 207.40 118.35 207.46 107.49 C 191.15 107.48 174.83 107.49 158.51 107.50 C 158.49 116.11 158.49 124.72 158.50 133.33 C 165.35 133.28 172.21 133.26 179.07 133.32 C 174.35 140.11 166.21 144.45 157.88 143.92 C 149.28 143.71 140.97 138.60 137.06 130.91 C 133.24 123.70 133.16 114.45 137.45 107.43 C 141.68 99.88 150.35 95.18 158.94 95.32 C 164.03 95.09 168.74 97.37 173.12 99.71 C 177.31 92.25 181.42 84.74 185.69 77.33 C 172.97 69.25 156.52 67.25 142.30 72.31 M 52.67 73.65 C 40.52 78.86 32.18 91.84 32.54 105.07 C 32.59 115.03 32.50 125.00 32.58 134.97 C 32.68 146.12 38.80 156.83 48.01 163.00 C 54.19 167.03 61.65 168.59 68.95 168.76 C 79.76 168.82 90.57 168.64 101.38 168.84 C 101.57 160.64 101.44 152.44 101.46 144.24 C 90.64 144.25 79.81 144.25 68.98 144.26 C 65.99 144.25 62.56 144.03 60.52 141.51 C 57.77 138.94 57.60 135.01 57.59 131.50 C 72.21 131.48 86.84 131.50 101.47 131.49 C 101.50 123.75 101.48 116.01 101.47 108.26 C 86.86 108.24 72.24 108.26 57.62 108.26 C 57.71 104.98 57.36 101.27 59.60 98.56 C 61.48 95.87 64.88 94.90 68.02 94.98 C 79.17 94.96 90.32 95.01 101.47 94.99 C 101.47 86.83 101.46 78.67 101.46 70.51 C 90.98 70.49 80.49 70.54 70.01 70.49 C 64.11 70.46 58.01 70.96 52.67 73.65 Z" />
<path fill="#ffffff" opacity="1.00" d=" M 5.72 92.63 C 7.42 89.38 8.56 85.22 12.07 83.46 C 14.45 83.84 14.79 87.09 14.45 89.07 C 13.54 92.31 12.35 95.50 12.27 98.91 C 9.91 107.39 10.79 116.29 10.88 124.98 C 12.65 132.62 13.61 140.48 16.27 147.90 C 19.07 156.20 21.35 164.78 25.50 172.54 C 24.71 173.07 23.91 173.60 23.11 174.14 C 15.97 168.39 11.86 159.93 8.47 151.62 C 4.22 141.39 2.58 130.12 3.57 119.10 C 4.00 113.81 3.28 108.47 4.33 103.24 C 4.99 99.71 3.92 95.92 5.72 92.63 Z" />
</g>
</svg>
